X:1
T:Cinq  mélodies Op.58
T:En Sourdine
T:2. En Sourdine
T:Cinq mélodies op.58
T:Gabriel Fauré
T:Paul Verlaine
T:OpenScore (CC0)
T:OpenScore (CC0)
T:OpenScore (CC0)
T:OpenScore (CC0)
T:OpenScore (CC0)
T:OpenScore (CC0)
T:OpenScore (CC0)
T:OpenScore (CC0)
T:OpenScore (CC0)
C:Gabriel Fauré
Z:Paul Verlaine
Z:OpenScore (CC0)
%%score 1 { ( 2 4 ) | ( 3 5 ) }
L:1/8
Q:1/4=63
M:4/4
K:Eb
V:1 treble nm="Voix"
V:2 treble nm="Piano"
V:4 treble 
V:3 bass 
V:5 bass 
V:1
"^Andante moderato." z8 |"^dolce" G6 F2- | F2- F z E E A3/2 A/ | G2 D E F _D D3/2 E/ | C4- C2 z2 | %5
w: |Cal  \-- \-  mes|_ _ dans le de- mi-|jour Que les bran- ches hau- tes|font, _|
 z4 z"^cresc." =A B B | ^F2 F3/2 F/ G2- G z | z"^sempre" B c c _A2 G3/2 G/ | F4 z!<(! =A c3/2 c/ | %9
w: Pé- né- trons|bien notre a- mour _|De ce si- len- ce pro-|fond, Mê- lons nos|
 c2!<)! B2 z!f! B _d2- | d z _d c B A A3/2 G/ |!>(! F4- F2!>)! z!p! c | c d c4 _c _G | %13
w: â- mes, Nos coeurs|_ et nos sens ex- ta- si-|és, _ Par-|\- mi les va \-- \- gues lan-|
 _G4- G _F F2- | _F4!pp! E E D3/2 E/ | E4- E2 z2 |"^dolcissimo" B2 B B!<(!!>(! _d4-!<)!!>)! | %17
w: gueurs _ Des pins|_ et des ar- bou-|siers _|Fer- me tes yeux|
 (3_d c d!pp! c4- c z | B2 B B!<(!!>(! _d4-!<)!!>)! | (3_d c d!pp! c4- c z | %20
w: _ à de- mi, _|Croi- se tes bras|_ sur ton sein, _|
"^cresc."!<(! c2 =E E F2 _c!<)! c |!mf! _c4 B2 A _F |!>(! E4!>)!!p! _G3 G | F4- F z z2 | %24
w: Et de ton coeur en- dor-|mi Chas- se~à ja-|\- mais tout des-|sein. _|
"^dolce" _d3 _c B3 A | B F F2- F z B2 | _d2 _c B c3 A | B6 A2 | G2 A B _c3 A | B3 B B2 A _c | %30
w: Lais \-- \- sons- nous per-|su- a- der _ Au|souf- fle ber- ceur et|doux Qui|vient, à tes pieds, ri-|der Les on- des des|
 B A _G6- | _G4- G2 z2 | z2!f! =G2 G2 F F | E3/2 E/ A4- A A |!>(! G3 D F2 _D3/2!>)! E/ | %35
w: ga- zons roux.|_ _|Et quand, so- len-|nel, le soir _ Des|chê- nes noirs tom- be-|
 C4- C2 z2 |!f! B3 c A A G3/2 G/ | F4- F2- F z | z4 z2!p! E2 | c3 c B4- | B4- B2 z2 | %41
w: \- ra, _|Voix~ de~ no- tre dé- ses-|poir, _ _|Le|ros- si- gnol|_ _|
!pp! e4- e3 E | E8- | E4 z4 | z8[Q:1/4=60] |[Q:1/4=58] z8 |[Q:1/4=56] z8 |] %47
w: chan  \-- * \-  te-|ra.|_||||
V:2
!p! x2 (G/E/B,/G,/) x2 (G/E/B,/G,/) | x2 (G/E/B,/G,/) x2 (F/D/B,/G,/) | %2
 x2 (F/D/B,/G,/) x2 (A/E/.C/[I:staff +1]F,/) | %3
[I:staff -1] x2 (G/D/B,/G,/) x2 (F/_D/[I:staff +1]B,/G,/) | %4
[I:staff -1] z4 z2"^espressivo" (E/C/[I:staff +1]G,/E,/ |[I:staff -1] G2x/G/E/=A,/ x2 B/-G/E/B,/ | %6
 x2 ^F/D/[I:staff +1]B,/^F,/[I:staff -1] G2 =A/G/E/=A,/) | %7
 (B2 c/_A/F/C/ A2 G/_D/B,/[I:staff +1]G,/ |[I:staff -1] F2!<(! c/=A/F/C/ d2 e/c/A/E/!<)! | %9
 e2 E/_D/[I:staff +1]B,/G,/[I:staff -1] =E2 F/D/[I:staff +1]A,/F,/) | %10
[I:staff -1] (G2x/F/_D/A,/x2x/A/F/B,/ |!>(! c2x/F/[I:staff +1]B,/A,/[I:staff -1] B2x/F/=D/!>)!C/ | %12
!pp! d4 e4 | _f4) x2 B,/_D/_F/B/ | x2 B,/B/_F/B,/ x2 A,/B/=D/A,/ | %15
 x2 G/E/B,/G,/ B/G/E/B,/ B/G/E/B,/ | B/_G/E/B,/ B/G/E/B,/ _d/G/E/_D/ d/G/E/D/ | %17
 _d/B/E/_D/ c/_G/E/C/ x2[I:staff +1] G,/[I:staff -1]C/E/G/ | %18
 B/_G/E/B,/ B/G/E/B,/ _d/G/E/_D/ d/G/E/D/ | %19
 _d/B/E/_D/ c/_G/E/C/ x2[I:staff +1] _G,/[I:staff -1]C/E/G/ | %20
 c z =E/C/B,/[I:staff +1]=E,/[I:staff -1] x2 _c/F/_D/_C/ |!mf! x2 _c/A/=D/_C/ x2 A/_F/_D/_A,/ | %22
!>(! x2 _G/E/B,/!>)!_G,/!p! x2 G/E/=A,/G,/ |!pp!"^dolce" (f2 a4- (3aga | %24
 g2 a2)[I:staff +1] F,/[I:staff -1]B,/_D/F/[I:staff +1] _F,/[I:staff -1]_C/D/F/ | %25
 (f2 a2- (3aga g2 | %26
 a2-) a z[I:staff +1] _G,/[I:staff -1]_C/E/_G/[I:staff +1] F,/[I:staff -1]C/E/A/ | %27
 (a2 _f2- (3f_ge f2-) | _f2 f/B/G/_F/ x2 _c/A/F/_C/ | (a2 _f2- (3f_ge f2- | %30
!<(! _f2x/B/_G/_F/ x2 e/-B/G/!<)!E/ | (3e_dBx/_G/E/_C/x2x/G/E/C/ | %32
 [B,B]2) B,/D/=G/B/ x2 G,/D/F/B/ | x2 A/E/C/[I:staff +1]F,/[I:staff -1] x2 A/E/C/[I:staff +1]F,/ | %34
!>(![I:staff -1] x2 G/D/B,/G,/ x2!>)! F/_D/B,/[I:staff +1]F,/ | %35
"^espressivo"!<(![I:staff -1] (G2x/G/E/=A,/x2!>!x/G/E/!<)!B,/ | %36
!mf! B2 c/_A/F/C/ A2 G/_D/[I:staff +1]B,/G,/ |!>(![I:staff -1] F z c/=A/E/C/ d2 e/c/A/!>)!E/ | %38
 =e2 f/_e/=A/F/ x2 g/e/c/G/ | x2 [=A=a]/g/e/A/ x2 [Bb]/f/d/B/ | x2 [=A=a]/g/e/A/ x2 [Bb]/_a/e/B/ | %41
"_sempre" x2 [=A=a]/e/g/a/ x2 [Bb]/e/g/b/ | x2 [=A=a]/e/g/a/ x2 [Bb]/e/_a/b/ | %43
 x2 =A/e/g/=a/ x2 B/e/g/b/ | x2 =A/e/g/=a/ x2 B/e/_a/b/) | z4 !arpeggio![Beb]2 z2 | %46
 !arpeggio![Beb]2 z2 z4 |] %47
V:3
!ped! (E,,/B,,/E,/G,/) x2 (E,,/B,,/E,/G,/) x2 | %1
 (E,,/B,,/E,/G,/) x2 (E,,/B,,/E,/G,/)!ped!!ped-up! x2 | %2
 (E,,/B,,/E,/G,/) x2!ped-up!!ped! (E,,/C,/.F,/[I:staff -1]C/)[I:staff +1] x2 | %3
!ped! (E,,/B,,/D,/G,/) x2!ped-up!!ped! (E,,/B,,/_D,/G,/) x2!ped-up! | %4
!ped! (E,,/C,/E,/G,/)[I:staff -1] (E/C/[I:staff +1]G,/E,/) (E,,/C,/E,/G,/) x2!ped-up! | %5
!ped! B,,,/B,,/C,/E,/!ped! x2!ped-up!!ped! C,,/C,/E,/G,/!ped! x2!ped-up! | %6
!ped! D,,/B,,/D,/^F,/ x2 B,,,/B,,/E,/G,/!ped-up! x2 | %7
!ped! D,,/B,,/F,/_A,/!ped! x2!ped-up!!ped! =E,,/_D,/B,/_D/!ped! x2!ped-up! | %8
!ped! F,,/C,/F,/=A,/ x2!ped-up!!ped! ^F,,/C,/=A,/C/!ped-up! x2 | %9
!ped! G,,/!mf!E,/G,/C/!ped! x2!ped-up!!ped! A,,,/A,,/_D,/A,/!ped! x2!ped-up! | %10
!ped! F,,/_D,/F,/A,/!ped! x2!ped-up!!ped! _D,,/A,,/D,/F,/!ped-up!!ped! x2!ped-up! | %11
!ped! =D,,/B,,/F,/A,/ x2!ped-up!!ped! A,,/D,/F,/B,/!ped-up! x2 | %12
!ped! G,,/D,/G,/D/ x2!ped! E,,/E,/_G,/C/!ped!!ped-up! x2!ped-up! | %13
!ped! _D,/_G,/_C/_F/ x2!ped-up!!ped! _G,,/D,/_F,/B,/ x2!ped-up! | %14
"^legato sempre"!ped! =G,,/B,,/_F,/B,/!ped!!ped-up! x2!ped-up!!ped! B,,,/B,,/E,/=F,/!ped!!ped-up! x2!ped-up! | %15
!ped! E,,/B,,/E,/"^dolcissimo"G,/ x4 x2!ped-up! |!ped! z4 z2 (B,2!ped-up! | %17
 _G,2!ped! A,2) _G,/E,/C,/E,/ x2!ped-up! |!ped! z4 z2 (B,2!ped-up! | %19
 _G,2!ped! A,2) [A,,,E,,A,,]2- [A,,,E,,A,,] z!ped-up! | %20
!ped! =G,,/C,/=E,/B,/ x2!ped-up!!ped! A,,/_D,/F,/_C/ x2!ped-up! | %21
!ped! B,,/=D,/A,/_C/ x2!ped-up!!ped! B,,/_G,/B,/_D/ x2!ped-up! | %22
!ped! _C,/_G,/B,/E/ x2!ped-up!!ped! F,,/=C,/E,/=A,/ x2!ped-up! | %23
!ped! B,,/F,/B,/_D/ F,/B,/D/F/[K:treble] B,/_D/F/B/ D/F/B/_d/!ped-up! | %24
!ped! _C/_D/F/A/[K:bass] A,/_C/_D/F/!ped!!ped-up! x4!ped-up!!ped!!ped-up! | %25
!ped! B,,/F,/B,/_D/ F,/B,/D/F/[K:treble] B,/_D/F/B/!ped-up!!ped! D/E/G/B/!ped-up! | %26
!ped! _C/_D/F/A/ A,/C/D/F/!ped!!ped-up![K:bass] x4!ped-up!!ped!!ped-up! | %27
 _F,/A,/B,/_D/ A,/B,/D/_F/ F,/A,/B,/D/ E,/F,/A,/_C/ | %28
!ped! _D,/G,/B,/_F/ x2!ped-up!!ped! A,,/_C,/=E,/A,/ x2!ped-up! | %29
!ped! _F,/A,/B,/_D/ A,/B,/D/_F/ F,/A,/B,/D/!ped-up!!ped! E,/F,/A,/_C/!ped-up! | %30
!ped! _D,/_G,/B,/_F/ x2!ped-up!!ped! _C,/G,/B,/_G/ z2!ped-up! | %31
!ped!!mf! B,,/E,/_G,/E/"^sempre" x2!ped-up!!ped! __B,,/E,/G,/E/ x2!ped-up! | %32
!ped! B,,,/B,,/D,/=G,/ x2 B,,/D,/G,/D/!ped!!ped-up! x2!ped-up! | %33
!ped! B,,/C,/F,/C/ x2 B,,/C,/F,/C/ x2!ped-up! | %34
!ped! E,,/B,,/D,/G,/ x2!ped-up!!ped! E,,/B,,/_D,/G,/ x2!ped-up! | %35
!ped! E,,/C,/E,/G,/!ped!!ped-up! x2!ped-up!!ped! C,,/C,/E,/G,/!ped!!ped-up! x2!ped-up! | %36
!ped! D,,/B,,/F,/_A,/ x2!ped-up!!ped! =E,,/_D,/B,/_D/!ped!!ped-up! x2!ped-up! | %37
!ped! F,,/E,/F,/=A,/ x2 F,/A,/E/F/ x2!ped-up! | %38
[K:treble]!ped! C/!p!_E/F/=A/ z2!ped! B,/!ped-up!C/E/G/ z2 | %39
[K:bass]!ped! =A,/!ped-up!C/E/G/ x2!ped! _A,/B,/D/F/ x2!ped-up! | %40
!ped!"^dim." G,/B,/E/G/ x2!ped-up!!ped! F,/!ped-up!_A,/B,/E/ x2 | %41
!ped!!pp! E,/B,/E/G/ x2!ped-up!!ped![K:treble] _D/E/G/B/ x2!ped-up! | %42
!ped![K:bass] E,/_C/E/G/ x2!ped-up!!ped![K:treble] B,/E/=A/B/ x2!ped-up! | %43
[K:bass]!ped! E,/B,/E/G/ x2!ped-up!!ped![K:treble] _D/E/G/B/ x2!ped-up! | %44
[K:bass]!ped! E,/_C/E/G/ x2!ped-up![K:treble] B,/E/_A/B/ x2 | %45
[K:bass]!ped! [E,,E,]2 z2 !arpeggio![G,B,EG]2 z2 | !arpeggio![G,B,EG]2 z2!ped-up! z4 |] %47
V:4
 x8 | x8 | x8 | x8 | x8 | x2 =A4 !>!B2 | B2 x4 =A2 | x8 | x6 e2- | x8 | x2 A4 B2 | x2 A2 x2 c2 | %12
 x2[I:staff +1] C/[I:staff -1]D/G/c/ x2[I:staff +1] _C/[I:staff -1]E/_G/_c/ | x2 _F/_G/_c/_f/ x4 | %14
 x8 | x8 | x8 | x8 | x8 | x8 | x8 | x8 | x8 | x8 | x4 z4 | x8 | x8 | x8 | x8 | x8 | x2 _f4 x2 | %31
 x2 _c4 [_Cc]2 | x8 | x8 | x8 | x2 =A4 B2- | x2 c2 x2 G2 | x2 c2 x2 e2 | x2 f2- (3fgf g2 | x8 | %40
 x8 | x8 | x8 | x8 | x8 | x8 | x8 |] %47
V:5
 x8 | x8 | x8 | x8 | x8 | x8 | x8 | x8 | x8 | x8 | x8 | x8 | x8 | x8 | x8 | x8 | x8 | %17
 x4 [A,,,E,,A,,]2- [A,,,E,,A,,] z | x8 | x4 _G,/E,/C,/E,/ x2 | x8 | x8 | x8 | x4[K:treble] x4 | %24
 x2[K:bass] x6 | x4[K:treble] x4 | x4[K:bass] x4 | x8 | x8 | x8 | x8 | x8 | x8 | x8 | x8 | x8 | %36
 x8 | x8 |[K:treble] x8 |[K:bass] x8 | x8 | x4[K:treble] x4 |[K:bass] x4[K:treble] x4 | %43
[K:bass] x4[K:treble] x4 |[K:bass] x4[K:treble] x4 |[K:bass] x8 | x8 |] %47

